X: 82
T: Beth Cohen Blues
C: Larry Unger 1/29/91
S: handwritten MS
Z: 2005 John Chambers <jc:trillian.mit.edu>
M: C|
L: 1/8
K: Aphr^c
|: "A"ABcd efed | egfe "Bb"fedc | "A"ABcd     efed |    efed e2ee  
|  "A"ABcd efed | egfe "Bb"fedc |    dcBd "Gm"cBAG | "A"A2E2 A2z2 :|
|: "A"A2eA "Bb"B2ed | "A"cde3  gfe | "A"A2eA "Bb"B2ed | "Gm"cBG3 dcB 
|  "A"A2eA "Bb"B2ed | "A"cdeg a2b2 |    abag "Bb"fedc |1 "A"c6 z2 :|2 "A"a6 z2 |]



